X: 305560
M: 2/4
L: 1/8
K: G
d |\
d>efA |
dedB | =cAAB | GEEA | FDDd |\
efeg | dBBG | BEEF | G3 |]


